X:1
T:Why Do the Holy Angels Sing?
T:Why Do the Holy Angels Sing?
T:William Howard Doane
T:Frances Jane (Fanny) Crosby, 1868
T:Public Domain Courtesy of the Cyber Hymnal™
T:Public Domain Courtesy of the Cyber Hymnal™
C:William Howard Doane
Z:Public Domain
Z:Courtesy of the Cyber Hymnal™
%%score ( 1 2 ) ( 3 4 )
L:1/8
Q:1/4=100
M:4/4
K:D
V:1 treble 
V:2 treble 
V:3 bass 
V:4 bass 
V:1
 ([DF]>[EG]) | ([FA]>[^E^G]) ([FA]>[=GB]) [FA]2 [FA]2 | [FA]2 [Af]2 !fermata![Fd]2 [Fd]2 | %3
w: 1.~Why *|do * the * ho- ly|an- gels sing? Why|
w: 2.~Glo- *|ry * to * Thee, our|God, they cry, Mak-|
w: 3.~Beau- *|ti- * ful * world where|all is bright, Riv-|
w: 4.~Well *|may * the * ho- ly|an- gels sing, Well|
 [Ac]>[GB] [Ac]>[Fd] [Ge]2 [Ec]2 | (d4 A2) ([DF]>[EG]) | ([FA]>[^E^G]) ([FA]>[=GB]) [FA]2 [FA]2 | %6
w: do the heav’n- ly arch- es|ring * With *|an- * thems * sweet from|
w: er of earth, and sea, and|sky, * To *|Thee * our * high- est|
w: ers of gold and fields of|light, * In *|mur- * mured * tones of|
w: may the heav- ’nly arch- es|ring, * With *|an- * thems * sweet from|
 [FA]2 [Af]2 !fermata![Fd]2 [Fd]2 | [Ac]>[GB] [Ac]>[Fd] [Ge]2 [Ec]2 | ([Ge]4 [Fd]2) || %9
w: ser- aphs bright, With|glitt- ’ring crowns and robes of|white? *|
w: strains be- long, Thou|great In- spir- er of our|song. *|
w: joy pro- long The|ech- o of the an- gels’|song *|
w: choirs a- bove, They|sing of God, and God is|love. *|
"^Refrain" [Fd]2 | (dc) [Fd]>[Fe] [Fd]2 [GB]>[GB] | ([FA]4 [DF]2) [DF]2 | %12
w: |||
w: They|sing * of the Lamb that was|slain, * The|
w: |||
w: |||
 [EG]2 [CA]>[EG] [DF]2 ([FA][DF]) |"^riten." ([CE]4 z !fermata!G) ([DF]>[EG]) | %14
w: ||
w: Sav- ior that lives a- *|gain, * The *|
w: ||
w: ||
 [FA]>[^E^G] [FA]>[=GB] [FA]2 [DF]>[FA] | d4 !fermata![Gd]2 ([DA][EG]) | %16
w: ||
w: * * root and the off- spring|of Da- vid, *|
w: ||
w: ||
 [DF]2 A2 [CE]2 !fermata!A2 | D6 |] %18
w: ||
w: The bright and morn-|ing|
w: ||
w: ||
V:2
 x2 | x8 | x8 | x8 | F6 x2 | x8 | x8 | x8 | x6 || x2 | F2 x6 | x8 | x8 | x4 [EA]2 x2 | x8 | %15
 (F2 A2) x4 | x2 (FD) x (GC) x | D6 |] %18
V:3
 [D,A,]2 | [D,D]2 [D,D]2 [D,D]2 [D,D]2 | [D,D]6 [D,A,]2 | %3
 [A,,A,]>[A,,A,] [A,,A,]>[A,,A,] [A,,A,]2 [A,,A,]2 | (A,4 D2) [D,D]2 | %5
 [D,D]2 [D,D]2 [D,D]2 [D,D]2 | [D,D]6 [D,A,]2 | [A,,A,]>[A,,A,] [A,,A,]>[A,,A,] [A,,A,]2 [A,,A,]2 | %8
 ([A,,A,]4 [D,A,]2) || [D,A,]2 | (B,^A,) [B,,B,]>[B,,C] [B,,B,]2 [G,D]>[G,D] | (D4 A,2) [D,A,]2 | %12
 [C,A,]2 [A,,E,]>[A,,A,] [D,A,]2 [D,A,]2 | (A,4 z A,) [D,A,]2 | %14
 [D,D]2 [D,D]>[D,D] [D,D]2 [D,D]>[D,D] | [D,A,]2 [F,=C]2 !fermata![G,B,]2 [F,A,][G,B,] | %16
 A,2 A,2 [A,,A,]2 (A,G,) | [D,F,]6 |] %18
V:4
 x2 | x8 | x8 | x8 | D,6 x2 | x8 | x8 | x8 | x6 || x2 | B,,2 x6 | D,6 x2 | x8 | A,,6 E,2 | x8 | %15
 x8 | A,2 A,2 A,,2 x2 | x6 |] %18

